icons/term-completed.svg

<svg
  xmlns="http://www.w3.org/2000/svg"
  viewBox="0 0 500 500"
  width="500"
  height="500"
  fill="#ffffff"
>
  <path d="M322.3 94.7H162.5a9.9 9.9 0 0 0 0 19.8h159.8a9.9 9.9 0 0 0 0-19.8z" />
  <rect x="72" y="94.7" width="63.5" height="63.54" />
  <path d="M162.7 158.2h113.7a10.1 10.1 0 1 0 0-20.2H162.7a10.1 10.1 0 1 0 0 20.2z" />
  <path d="M332.2 225.8a9.9 9.9 0 0 0-9.9-10H162.5a9.9 9.9 0 0 0-9.9 10 9.9 9.9 0 0 0 9.9 9.9h159.8a9.9 9.9 0 0 0 9.9-9.9z" />
  <rect x="72" y="215.8" width="63.5" height="63.54" />
  <path d="M286.5 269.3a10.1 10.1 0 0 0-10.1-10.1H162.7a10.1 10.1 0 0 0 0 20.2h113.7a10.1 10.1 0 0 0 10.1-10.1z" />
  <rect x="72" y="337" width="63.5" height="63.54" />
  <path d="M162.2 380.3a9.7 9.7 0 0 0-9.6 9.7v.9a9.6 9.6 0 0 0 9.6 9.6h82.4c-.1-1.3-.1-2.7-.1-4a123.6 123.6 0 0 1 1.1-16.2z" />
  <path d="M261.2 337h-98.7a10 10 0 0 0 0 19.9h89.1a114.2 114.2 0 0 1 9.6-19.9z" />
  <path d="M75.7 441.1A20.7 20.7 0 0 1 55 420.4v-340a20.7 20.7 0 0 1 20.7-20.7h252.9a20.7 20.7 0 0 1 20.7 20.7v202.7a87.7 87.7 0 0 1 9-.4c3.4 0 6.7.1 10.1.4V80.4a39.9 39.9 0 0 0-39.8-39.8h-83.3a40.2 40.2 0 0 0-79.8 0H75.7a39.8 39.8 0 0 0-39.8 39.8v340a39.8 39.8 0 0 0 39.8 39.8H264a121.4 121.4 0 0 1-10.4-19.1zM205.4 23.2A21.9 21.9 0 0 1 225.3 36h-39.9a22.1 22.1 0 0 1 20-12.8z" />
  <path d="M363.9 294.5a100.3 100.3 0 1 0 100.2 100.2 100.3 100.3 0 0 0-100.2-100.2zm55.5 71.7l-69.9 69.9a9.8 9.8 0 0 1-7 2.9 9.7 9.7 0 0 1-7-2.9l-37-36.9a10 10 0 0 1 0-14 9.8 9.8 0 0 1 14 0l30 29.9 62.9-62.9a9.9 9.9 0 0 1 14 14z" />
</svg>

<svg xmlns="http://www.w3.org/2000/svg" viewBox="0 0 500 500">
  <g id="term-completed">
    <path id="top-line1" d="M322.3,94.7H162.5a9.9,9.9,0,0,0,0,19.8H322.3a9.9,9.9,0,0,0,0-19.8Z"/>
    <rect id="top-square" x="72" y="94.7" width="63.5" height="63.54"/>
    <path id="top-line2" d="M162.7,158.2H276.4a10.1,10.1,0,1,0,0-20.2H162.7a10.1,10.1,0,1,0,0,20.2Z"/>
    <path id="middle-line1" d="M332.2,225.8h0a9.9,9.9,0,0,0-9.9-10H162.5a9.9,9.9,0,0,0-9.9,10h0a9.9,9.9,0,0,0,9.9,9.9H322.3A9.9,9.9,0,0,0,332.2,225.8Z"/>
    <rect id="middle-squre" x="72" y="215.8" width="63.5" height="63.54"/>
    <path id="middle-line2" d="M286.5,269.3a10.1,10.1,0,0,0-10.1-10.1H162.7a10.1,10.1,0,0,0,0,20.2H276.4A10.1,10.1,0,0,0,286.5,269.3Z"/>
    <rect id="bottom-square" x="72" y="337" width="63.5" height="63.54"/>
    <path id="bottom-line2" d="M162.2,380.3a9.7,9.7,0,0,0-9.6,9.7v.9a9.6,9.6,0,0,0,9.6,9.6h82.4c-.1-1.3-.1-2.7-.1-4a123.6,123.6,0,0,1,1.1-16.2Z"/>
    <path id="bottom-line1" d="M261.2,337H162.5a10,10,0,0,0,0,19.9h89.1A114.2,114.2,0,0,1,261.2,337Z"/>
    <path id="outline" d="M75.7,441.1A20.7,20.7,0,0,1,55,420.4V80.4A20.7,20.7,0,0,1,75.7,59.7H328.6a20.7,20.7,0,0,1,20.7,20.7V283.1a87.7,87.7,0,0,1,9-.4c3.4,0,6.7.1,10.1.4V80.4a39.9,39.9,0,0,0-39.8-39.8H245.3a40.2,40.2,0,0,0-79.8,0H75.7A39.8,39.8,0,0,0,35.9,80.4v340a39.8,39.8,0,0,0,39.8,39.8H264a121.4,121.4,0,0,1-10.4-19.1ZM205.4,23.2A21.9,21.9,0,0,1,225.3,36H185.4A22.1,22.1,0,0,1,205.4,23.2Z"/>
    <path id="check" d="M363.9,294.5A100.3,100.3,0,1,0,464.1,394.7,100.3,100.3,0,0,0,363.9,294.5Zm55.5,71.7-69.9,69.9a9.8,9.8,0,0,1-7,2.9,9.7,9.7,0,0,1-7-2.9l-37-36.9a10,10,0,0,1,0-14,9.8,9.8,0,0,1,14,0l30,29.9,62.9-62.9a9.9,9.9,0,0,1,14,14Z"/>
  </g>
</svg>
